; G-Code generated by Simplify3D(R) Version 4.0.0
; Jul 29, 2018 at 12:40:34 PM
; Settings Summary
;   processName,Process1
;   applyToModels,gear17 - 1.1
;   profileName,AnetA8 (modified)
;   profileVersion,2018-07-26 17:16:30
;   baseProfile,Default
;   printMaterial,PLA
;   printQuality,Medium
;   printExtruders,
;   extruderName,Extruder 1
;   extruderToolheadNumber,0
;   extruderDiameter,0.4
;   extruderAutoWidth,0
;   extruderWidth,0.4
;   extrusionMultiplier,1
;   extruderUseRetract,1
;   extruderRetractionDistance,2
;   extruderExtraRestartDistance,0
;   extruderRetractionZLift,0
;   extruderRetractionSpeed,3600
;   extruderUseCoasting,0
;   extruderCoastingDistance,0.2
;   extruderUseWipe,0
;   extruderWipeDistance,5
;   primaryExtruder,0
;   layerHeight,0.2
;   topSolidLayers,4
;   bottomSolidLayers,4
;   perimeterOutlines,2
;   printPerimetersInsideOut,1
;   startPointOption,2
;   startPointOriginX,0
;   startPointOriginY,0
;   sequentialIslands,0
;   spiralVaseMode,0
;   firstLayerHeightPercentage,90
;   firstLayerWidthPercentage,100
;   firstLayerUnderspeed,0.5
;   useRaft,0
;   raftExtruder,0
;   raftTopLayers,3
;   raftBaseLayers,2
;   raftOffset,3
;   raftSeparationDistance,0.14
;   raftTopInfill,100
;   aboveRaftSpeedMultiplier,0.3
;   useSkirt,1
;   skirtExtruder,0
;   skirtLayers,1
;   skirtOutlines,2
;   skirtOffset,4
;   usePrimePillar,0
;   primePillarExtruder,999
;   primePillarWidth,12
;   primePillarLocation,7
;   primePillarSpeedMultiplier,1
;   useOozeShield,0
;   oozeShieldExtruder,999
;   oozeShieldOffset,2
;   oozeShieldOutlines,1
;   oozeShieldSidewallShape,1
;   oozeShieldSidewallAngle,30
;   oozeShieldSpeedMultiplier,1
;   infillExtruder,0
;   internalInfillPattern,Fast Honeycomb
;   externalInfillPattern,Rectilinear
;   infillPercentage,30
;   outlineOverlapPercentage,15
;   infillExtrusionWidthPercentage,100
;   minInfillLength,5
;   infillLayerInterval,1
;   internalInfillAngles,0
;   overlapInternalInfillAngles,0
;   externalInfillAngles,45,-45
;   generateSupport,1
;   supportExtruder,0
;   supportInfillPercentage,30
;   supportExtraInflation,0
;   supportBaseLayers,0
;   denseSupportExtruder,0
;   denseSupportLayers,0
;   denseSupportInfillPercentage,70
;   supportLayerInterval,1
;   supportHorizontalPartOffset,0.3
;   supportUpperSeparationLayers,1
;   supportLowerSeparationLayers,1
;   supportType,0
;   supportGridSpacing,4
;   maxOverhangAngle,45
;   supportAngles,0
;   temperatureName,Extruder 1 Temperature,Hotbed
;   temperatureNumber,0,0
;   temperatureSetpointCount,1,1
;   temperatureSetpointLayers,1,1
;   temperatureSetpointTemperatures,200,60
;   temperatureStabilizeAtStartup,1,1
;   temperatureHeatedBed,0,1
;   temperatureRelayBetweenLayers,0,0
;   temperatureRelayBetweenLoops,0,0
;   fanLayers,1,2
;   fanSpeeds,0,100
;   blipFanToFullPower,0
;   adjustSpeedForCooling,1
;   minSpeedLayerTime,15
;   minCoolingSpeedSlowdown,20
;   increaseFanForCooling,0
;   minFanLayerTime,45
;   maxCoolingFanSpeed,100
;   increaseFanForBridging,0
;   bridgingFanSpeed,100
;   use5D,1
;   relativeEdistances,0
;   allowEaxisZeroing,1
;   independentExtruderAxes,0
;   includeM10123,0
;   stickySupport,1
;   applyToolheadOffsets,0
;   gcodeXoffset,0
;   gcodeYoffset,0
;   gcodeZoffset,0
;   overrideMachineDefinition,1
;   machineTypeOverride,0
;   strokeXoverride,200
;   strokeYoverride,200
;   strokeZoverride,240
;   originOffsetXoverride,0
;   originOffsetYoverride,0
;   originOffsetZoverride,0
;   homeXdirOverride,-1
;   homeYdirOverride,-1
;   homeZdirOverride,-1
;   flipXoverride,1
;   flipYoverride,-1
;   flipZoverride,1
;   toolheadOffsets,0,0|0,0|0,0|0,0|0,0|0,0
;   overrideFirmwareConfiguration,1
;   firmwareTypeOverride,RepRap (Marlin/Repetier/Sprinter)
;   GPXconfigOverride,r2
;   baudRateOverride,115200
;   overridePrinterModels,0
;   printerModelsOverride
;   startingGcode,G28 ; home all axes
;   layerChangeGcode,
;   retractionGcode,
;   toolChangeGcode,
;   endingGcode,M104 S0 ; turn off extruder,M140 S0 ; turn off bed,G1 E-1 F300	; retract the filament a bit,G28 X0 Y0; home,M84 ; disable motors,M107 ; shut off fan
;   exportFileFormat,gcode
;   celebration,0
;   celebrationSong,Star Wars
;   postProcessing,
;   defaultSpeed,3600
;   outlineUnderspeed,0.5
;   solidInfillUnderspeed,0.8
;   supportUnderspeed,0.8
;   rapidXYspeed,4800
;   rapidZspeed,1002
;   minBridgingArea,50
;   bridgingExtraInflation,0
;   bridgingExtrusionMultiplier,1
;   bridgingSpeedMultiplier,1
;   useFixedBridgingAngle,0
;   fixedBridgingAngle,0
;   applyBridgingToPerimeters,0
;   filamentDiameters,1.7|1.7|1.7|1.7|1.7|1.7
;   filamentPricesPerKg,120|20|20|20|20|20
;   filamentDensities,1.25|1.25|1.25|1.25|1.25|1.25
;   useMinPrintHeight,0
;   minPrintHeight,0
;   useMaxPrintHeight,0
;   maxPrintHeight,0
;   useDiaphragm,0
;   diaphragmLayerInterval,20
;   robustSlicing,1
;   mergeAllIntoSolid,0
;   onlyRetractWhenCrossingOutline,1
;   retractBetweenLayers,1
;   useRetractionMinTravel,0
;   retractionMinTravel,3
;   retractWhileWiping,0
;   onlyWipeOutlines,1
;   avoidCrossingOutline,0
;   maxMovementDetourFactor,3
;   toolChangeRetractionDistance,12
;   toolChangeExtraRestartDistance,-0.5
;   toolChangeRetractionSpeed,600
;   externalThinWallType,0
;   internalThinWallType,0
;   thinWallAllowedOverlapPercentage,10
;   singleExtrusionMinLength,1
;   singleExtrusionMinPrintingWidthPercentage,50
;   singleExtrusionMaxPrintingWidthPercentage,200
;   singleExtrusionEndpointExtension,0.2
;   horizontalSizeCompensation,0
G90
M82
M106 S0
M140 S60
M190 S60
M104 S200 T0
M109 S200 T0
G28 ; home all axes
G92 E0
G1 E-2.0000 F3600
G1 Z0.180 F1002
; process Process1
; layer 1, Z = 0.180
T0
; tool H0.200 W0.400
; skirt
G1 X90.706 Y90.767 F4800
G1 E0.0000 F1080
G92 E0
G1 X90.716 Y90.756 E0.0005 F1800
G1 X90.869 Y90.607 E0.0080
G1 X90.880 Y90.597 E0.0086
G1 X91.759 Y89.818 E0.0500
G1 X91.770 Y89.808 E0.0505
G1 X91.937 Y89.674 E0.0580
G1 X91.949 Y89.665 E0.0586
G1 X92.702 Y89.121 E0.0913
G1 X92.712 Y89.114 E0.0917
G1 X92.866 Y89.012 E0.0982
G1 X92.877 Y89.006 E0.0987
G1 X93.669 Y88.530 E0.1313
G1 X93.682 Y88.523 E0.1318
G1 X93.871 Y88.422 E0.1393
G1 X93.884 Y88.416 E0.1398
G1 X94.952 Y87.912 E0.1814
G1 X94.965 Y87.906 E0.1820
G1 X95.163 Y87.825 E0.1895
G1 X95.177 Y87.819 E0.1900
G1 X96.047 Y87.510 E0.2226
G1 X96.060 Y87.506 E0.2230
G1 X96.235 Y87.452 E0.2295
G1 X96.247 Y87.449 E0.2299
G1 X97.140 Y87.215 E0.2625
G1 X97.155 Y87.212 E0.2630
G1 X97.364 Y87.168 E0.2706
G1 X97.379 Y87.165 E0.2711
G1 X98.545 Y86.981 E0.3127
G1 X98.560 Y86.979 E0.3132
G1 X98.772 Y86.957 E0.3208
G1 X98.787 Y86.956 E0.3213
G1 X99.694 Y86.904 E0.3533
G1 X99.705 Y86.903 E0.3537
G1 X99.858 Y86.900 E0.3591
G1 X99.868 Y86.900 E0.3594
G1 X100.489 Y86.909 E0.3813
G1 X100.497 Y86.909 E0.3816
G1 X100.620 Y86.914 E0.3859
G1 X100.628 Y86.915 E0.3862
G1 X101.263 Y86.960 E0.4086
G1 X101.275 Y86.961 E0.4091
G1 X101.458 Y86.982 E0.4155
G1 X101.470 Y86.984 E0.4160
G1 X102.621 Y87.165 E0.4571
G1 X102.635 Y87.168 E0.4576
G1 X102.845 Y87.212 E0.4651
G1 X102.859 Y87.215 E0.4656
G1 X103.753 Y87.449 E0.4982
G1 X103.765 Y87.452 E0.4986
G1 X103.940 Y87.506 E0.5051
G1 X103.953 Y87.510 E0.5056
G1 X104.794 Y87.809 E0.5370
G1 X104.804 Y87.813 E0.5374
G1 X104.946 Y87.869 E0.5428
G1 X104.956 Y87.873 E0.5432
G1 X105.525 Y88.122 E0.5651
G1 X105.533 Y88.125 E0.5654
G1 X105.643 Y88.178 E0.5697
G1 X105.651 Y88.181 E0.5700
G1 X106.218 Y88.469 E0.5924
G1 X106.229 Y88.475 E0.5928
G1 X106.389 Y88.565 E0.5993
G1 X106.400 Y88.571 E0.5997
G1 X107.391 Y89.184 E0.6408
G1 X107.403 Y89.193 E0.6413
G1 X107.579 Y89.314 E0.6489
G1 X107.591 Y89.323 E0.6494
G1 X108.336 Y89.894 E0.6825
G1 X108.348 Y89.903 E0.6830
G1 X108.511 Y90.042 E0.6905
G1 X108.522 Y90.052 E0.6911
G1 X109.383 Y90.859 E0.7327
G1 X109.394 Y90.870 E0.7332
G1 X109.542 Y91.024 E0.7407
G1 X109.552 Y91.035 E0.7413
G1 X110.160 Y91.730 E0.7738
G1 X110.168 Y91.740 E0.7743
G1 X110.283 Y91.883 E0.7807
G1 X110.290 Y91.893 E0.7812
G1 X110.836 Y92.638 E0.8137
G1 X110.845 Y92.650 E0.8142
G1 X110.963 Y92.829 E0.8218
G1 X110.971 Y92.842 E0.8223
G1 X111.570 Y93.858 E0.8639
G1 X111.578 Y93.871 E0.8644
G1 X111.677 Y94.060 E0.8720
G1 X111.684 Y94.074 E0.8725
G1 X112.078 Y94.926 E0.9056
G1 X112.084 Y94.939 E0.9061
G1 X112.164 Y95.138 E0.9137
G1 X112.169 Y95.152 E0.9142
G1 X112.551 Y96.252 E0.9552
G1 X112.555 Y96.264 E0.9557
G1 X112.608 Y96.440 E0.9622
G1 X112.611 Y96.452 E0.9626
G1 X112.768 Y97.069 E0.9850
G1 X112.770 Y97.077 E0.9853
G1 X112.797 Y97.196 E0.9896
G1 X112.798 Y97.205 E0.9899
G1 X112.917 Y97.814 E1.0118
G1 X112.919 Y97.825 E1.0122
G1 X112.942 Y97.976 E1.0176
G1 X112.944 Y97.986 E1.0180
G1 X113.052 Y98.873 E1.0494
G1 X113.053 Y98.885 E1.0499
G1 X113.067 Y99.068 E1.0563
G1 X113.068 Y99.081 E1.0568
G1 X113.100 Y99.973 E1.0883
G1 X113.100 Y99.984 E1.0886
G1 X113.100 Y100.137 E1.0940
G1 X113.100 Y100.147 E1.0944
G1 X113.076 Y100.798 E1.1174
G1 X113.076 Y100.811 E1.1178
G1 X113.061 Y100.994 E1.1243
G1 X113.060 Y101.007 E1.1247
G1 X112.922 Y102.148 E1.1652
G1 X112.920 Y102.161 E1.1657
G1 X112.890 Y102.342 E1.1722
G1 X112.888 Y102.354 E1.1726
G1 X112.754 Y102.992 E1.1956
G1 X112.752 Y103.002 E1.1959
G1 X112.715 Y103.150 E1.2013
G1 X112.713 Y103.161 E1.2017
G1 X112.468 Y104.020 E1.2332
G1 X112.464 Y104.032 E1.2336
G1 X112.407 Y104.206 E1.2401
G1 X112.403 Y104.218 E1.2405
G1 X112.075 Y105.081 E1.2731
G1 X112.069 Y105.095 E1.2736
G1 X111.984 Y105.291 E1.2812
G1 X111.977 Y105.305 E1.2817
G1 X111.451 Y106.361 E1.3233
G1 X111.444 Y106.374 E1.3238
G1 X111.340 Y106.561 E1.3313
G1 X111.332 Y106.574 E1.3319
G1 X110.832 Y107.368 E1.3650
G1 X110.824 Y107.381 E1.3655
G1 X110.701 Y107.556 E1.3730
G1 X110.692 Y107.568 E1.3735
G1 X109.968 Y108.500 E1.4151
G1 X109.958 Y108.511 E1.4157
G1 X109.819 Y108.673 E1.4232
G1 X109.809 Y108.684 E1.4237
G1 X109.172 Y109.353 E1.4563
G1 X109.163 Y109.362 E1.4567
G1 X109.031 Y109.490 E1.4632
G1 X109.022 Y109.499 E1.4636
G1 X108.330 Y110.111 E1.4962
G1 X108.319 Y110.121 E1.4967
G1 X108.152 Y110.254 E1.5043
G1 X108.140 Y110.263 E1.5048
G1 X107.183 Y110.954 E1.5464
G1 X107.171 Y110.963 E1.5469
G1 X106.992 Y111.079 E1.5545
G1 X106.979 Y111.087 E1.5550
G1 X106.167 Y111.558 E1.5881
G1 X106.154 Y111.565 E1.5886
G1 X105.964 Y111.664 E1.5961
G1 X105.950 Y111.670 E1.5967
G1 X104.876 Y112.158 E1.6382
G1 X104.862 Y112.164 E1.6388
G1 X104.663 Y112.243 E1.6463
G1 X104.649 Y112.248 E1.6468
G1 X103.775 Y112.544 E1.6794
G1 X103.762 Y112.548 E1.6798
G1 X103.586 Y112.600 E1.6863
G1 X103.574 Y112.603 E1.6868
G1 X102.677 Y112.824 E1.7193
G1 X102.663 Y112.827 E1.7198
G1 X102.453 Y112.868 E1.7274
G1 X102.438 Y112.871 E1.7279
G1 X101.255 Y113.040 E1.7700
G1 X101.238 Y113.042 E1.7706
G1 X100.994 Y113.063 E1.7792
G1 X100.977 Y113.064 E1.7799
G1 X99.783 Y113.098 E1.8220
G1 X99.768 Y113.098 E1.8225
G1 X99.554 Y113.093 E1.8300
G1 X99.539 Y113.093 E1.8306
G1 X98.603 Y113.026 E1.8636
G1 X98.588 Y113.024 E1.8642
G1 X98.375 Y112.999 E1.8717
G1 X98.361 Y112.997 E1.8722
G1 X97.198 Y112.796 E1.9138
G1 X97.183 Y112.793 E1.9144
G1 X96.974 Y112.747 E1.9219
G1 X96.960 Y112.743 E1.9224
G1 X96.070 Y112.497 E1.9550
G1 X96.057 Y112.493 E1.9554
G1 X95.883 Y112.437 E1.9619
G1 X95.871 Y112.432 E1.9623
G1 X95.019 Y112.116 E1.9943
G1 X95.007 Y112.112 E1.9948
G1 X94.838 Y112.041 E2.0013
G1 X94.827 Y112.035 E2.0017
G1 X93.991 Y111.641 E2.0343
G1 X93.978 Y111.635 E2.0348
G1 X93.789 Y111.534 E2.0423
G1 X93.776 Y111.527 E2.0429
G1 X92.764 Y110.920 E2.0845
G1 X92.752 Y110.912 E2.0850
G1 X92.574 Y110.793 E2.0925
G1 X92.562 Y110.784 E2.0930
G1 X91.821 Y110.233 E2.1256
G1 X91.811 Y110.225 E2.1260
G1 X91.668 Y110.109 E2.1325
G1 X91.659 Y110.101 E2.1330
G1 X90.967 Y109.489 E2.1655
G1 X90.956 Y109.479 E2.1660
G1 X90.803 Y109.329 E2.1736
G1 X90.793 Y109.318 E2.1741
G1 X89.992 Y108.452 E2.2157
G1 X89.982 Y108.441 E2.2162
G1 X89.845 Y108.276 E2.2238
G1 X89.835 Y108.265 E2.2243
G1 X89.270 Y107.516 E2.2574
G1 X89.261 Y107.503 E2.2579
G1 X89.141 Y107.326 E2.2654
G1 X89.132 Y107.314 E2.2660
G1 X88.526 Y106.319 E2.3070
G1 X88.520 Y106.308 E2.3075
G1 X88.431 Y106.148 E2.3139
G1 X88.425 Y106.136 E2.3144
G1 X88.142 Y105.567 E2.3368
G1 X88.138 Y105.559 E2.3371
G1 X88.087 Y105.448 E2.3414
G1 X88.083 Y105.440 E2.3417
G1 X87.838 Y104.870 E2.3636
G1 X87.834 Y104.860 E2.3640
G1 X87.779 Y104.718 E2.3694
G1 X87.775 Y104.708 E2.3697
G1 X87.483 Y103.864 E2.4012
G1 X87.479 Y103.852 E2.4017
G1 X87.426 Y103.676 E2.4081
G1 X87.423 Y103.664 E2.4086
G1 X87.195 Y102.769 E2.4411
G1 X87.192 Y102.754 E2.4417
G1 X87.150 Y102.544 E2.4492
G1 X87.147 Y102.530 E2.4497
G1 X86.972 Y101.363 E2.4913
G1 X86.970 Y101.348 E2.4918
G1 X86.948 Y101.135 E2.4994
G1 X86.947 Y101.120 E2.4999
G1 X86.901 Y100.183 E2.5330
G1 X86.900 Y100.168 E2.5335
G1 X86.900 Y99.954 E2.5411
G1 X86.901 Y99.939 E2.5416
G1 X86.960 Y98.745 E2.5837
G1 X86.961 Y98.728 E2.5843
G1 X86.987 Y98.485 E2.5929
G1 X86.990 Y98.468 E2.5936
G1 X87.184 Y97.288 E2.6357
G1 X87.187 Y97.273 E2.6362
G1 X87.232 Y97.064 E2.6438
G1 X87.236 Y97.050 E2.6443
G1 X87.476 Y96.158 E2.6768
G1 X87.479 Y96.146 E2.6773
G1 X87.535 Y95.971 E2.6837
G1 X87.539 Y95.959 E2.6842
G1 X87.854 Y95.091 E2.7167
G1 X87.859 Y95.077 E2.7173
G1 X87.942 Y94.880 E2.7248
G1 X87.948 Y94.866 E2.7253
G1 X88.459 Y93.802 E2.7669
G1 X88.466 Y93.789 E2.7675
G1 X88.568 Y93.601 E2.7750
G1 X88.576 Y93.588 E2.7755
G1 X89.064 Y92.786 E2.8086
G1 X89.072 Y92.774 E2.8091
G1 X89.193 Y92.597 E2.8167
G1 X89.201 Y92.585 E2.8172
G1 X89.913 Y91.643 E2.8588
G1 X89.922 Y91.631 E2.8593
G1 X90.059 Y91.467 E2.8669
G1 X90.069 Y91.456 E2.8674
G1 X90.706 Y90.767 E2.9005
G1 X90.996 Y91.042 F4800
G92 E0
G1 X91.000 Y91.038 E0.0002 F1800
G1 X91.145 Y90.896 E0.0073
G1 X91.149 Y90.893 E0.0075
G1 X92.020 Y90.120 E0.0486
G1 X92.024 Y90.117 E0.0487
G1 X92.183 Y89.989 E0.0559
G1 X92.187 Y89.986 E0.0561
G1 X92.933 Y89.448 E0.0885
G1 X92.936 Y89.445 E0.0887
G1 X93.083 Y89.349 E0.0949
G1 X93.086 Y89.346 E0.0950
G1 X93.871 Y88.876 E0.1272
G1 X93.875 Y88.874 E0.1274
G1 X94.055 Y88.777 E0.1346
G1 X94.059 Y88.775 E0.1348
G1 X95.118 Y88.276 E0.1760
G1 X95.122 Y88.274 E0.1762
G1 X95.311 Y88.196 E0.1834
G1 X95.316 Y88.195 E0.1836
G1 X96.177 Y87.889 E0.2158
G1 X96.181 Y87.887 E0.2159
G1 X96.348 Y87.836 E0.2221
G1 X96.352 Y87.835 E0.2223
G1 X97.237 Y87.603 E0.2545
G1 X97.242 Y87.602 E0.2547
G1 X97.441 Y87.560 E0.2618
G1 X97.446 Y87.560 E0.2620
G1 X98.602 Y87.377 E0.3033
G1 X98.607 Y87.377 E0.3034
G1 X98.810 Y87.355 E0.3106
G1 X98.815 Y87.355 E0.3108
G1 X99.713 Y87.303 E0.3425
G1 X99.717 Y87.303 E0.3426
G1 X99.863 Y87.300 E0.3478
G1 X99.866 Y87.300 E0.3479
G1 X100.480 Y87.309 E0.3696
G1 X100.483 Y87.309 E0.3697
G1 X100.600 Y87.314 E0.3738
G1 X100.602 Y87.314 E0.3739
G1 X101.230 Y87.359 E0.3960
G1 X101.234 Y87.359 E0.3962
G1 X101.408 Y87.379 E0.4023
G1 X101.412 Y87.380 E0.4025
G1 X102.554 Y87.560 E0.4432
G1 X102.559 Y87.560 E0.4434
G1 X102.758 Y87.602 E0.4506
G1 X102.763 Y87.603 E0.4508
G1 X103.648 Y87.835 E0.4830
G1 X103.652 Y87.836 E0.4831
G1 X103.819 Y87.887 E0.4893
G1 X103.823 Y87.889 E0.4895
G1 X104.657 Y88.185 E0.5206
G1 X104.660 Y88.186 E0.5208
G1 X104.796 Y88.240 E0.5259
G1 X104.799 Y88.241 E0.5260
G1 X105.362 Y88.487 E0.5477
G1 X105.364 Y88.488 E0.5478
G1 X105.470 Y88.538 E0.5519
G1 X105.472 Y88.539 E0.5520
G1 X106.033 Y88.824 E0.5742
G1 X106.037 Y88.826 E0.5743
G1 X106.190 Y88.911 E0.5805
G1 X106.193 Y88.914 E0.5806
G1 X107.176 Y89.522 E0.6214
G1 X107.180 Y89.525 E0.6215
G1 X107.348 Y89.641 E0.6287
G1 X107.352 Y89.643 E0.6289
G1 X108.089 Y90.208 E0.6616
G1 X108.093 Y90.212 E0.6618
G1 X108.249 Y90.344 E0.6690
G1 X108.252 Y90.347 E0.6692
G1 X109.106 Y91.147 E0.7104
G1 X109.109 Y91.151 E0.7106
G1 X109.251 Y91.298 E0.7178
G1 X109.254 Y91.301 E0.7180
G1 X109.856 Y91.990 E0.7502
G1 X109.859 Y91.993 E0.7503
G1 X109.968 Y92.130 E0.7565
G1 X109.970 Y92.133 E0.7566
G1 X110.511 Y92.870 E0.7889
G1 X110.514 Y92.875 E0.7890
G1 X110.626 Y93.045 E0.7962
G1 X110.629 Y93.049 E0.7964
G1 X111.223 Y94.057 E0.8377
G1 X111.226 Y94.061 E0.8378
G1 X111.321 Y94.242 E0.8450
G1 X111.323 Y94.246 E0.8452
G1 X111.713 Y95.089 E0.8779
