; G-Code generated by Simplify3D(R) Version 4.0.0
; Mar 13, 2019 at 10:03:24 PM
; Settings Summary
;   processName,Process1
;   applyToModels,lidar_lens_cap0
;   profileName,AnetA8 (modified)
;   profileVersion,2018-12-13 19:09:54
;   baseProfile,Default
;   printMaterial,PLA
;   printQuality,Medium
;   printExtruders,
;   extruderName,Extruder 1
;   extruderToolheadNumber,0
;   extruderDiameter,0.4
;   extruderAutoWidth,0
;   extruderWidth,0.4
;   extrusionMultiplier,1
;   extruderUseRetract,1
;   extruderRetractionDistance,2
;   extruderExtraRestartDistance,0
;   extruderRetractionZLift,0
;   extruderRetractionSpeed,3600
;   extruderUseCoasting,0
;   extruderCoastingDistance,0.2
;   extruderUseWipe,0
;   extruderWipeDistance,5
;   primaryExtruder,0
;   layerHeight,0.2
;   topSolidLayers,2
;   bottomSolidLayers,2
;   perimeterOutlines,2
;   printPerimetersInsideOut,1
;   startPointOption,2
;   startPointOriginX,0
;   startPointOriginY,0
;   sequentialIslands,0
;   spiralVaseMode,0
;   firstLayerHeightPercentage,90
;   firstLayerWidthPercentage,100
;   firstLayerUnderspeed,0.5
;   useRaft,0
;   raftExtruder,0
;   raftTopLayers,3
;   raftBaseLayers,2
;   raftOffset,3
;   raftSeparationDistance,0.14
;   raftTopInfill,100
;   aboveRaftSpeedMultiplier,0.3
;   useSkirt,1
;   skirtExtruder,0
;   skirtLayers,1
;   skirtOutlines,2
;   skirtOffset,4
;   usePrimePillar,0
;   primePillarExtruder,999
;   primePillarWidth,12
;   primePillarLocation,7
;   primePillarSpeedMultiplier,1
;   useOozeShield,0
;   oozeShieldExtruder,999
;   oozeShieldOffset,2
;   oozeShieldOutlines,1
;   oozeShieldSidewallShape,1
;   oozeShieldSidewallAngle,30
;   oozeShieldSpeedMultiplier,1
;   infillExtruder,0
;   internalInfillPattern,Fast Honeycomb
;   externalInfillPattern,Rectilinear
;   infillPercentage,20
;   outlineOverlapPercentage,15
;   infillExtrusionWidthPercentage,100
;   minInfillLength,5
;   infillLayerInterval,1
;   internalInfillAngles,0
;   overlapInternalInfillAngles,0
;   externalInfillAngles,45,-45
;   generateSupport,0
;   supportExtruder,0
;   supportInfillPercentage,30
;   supportExtraInflation,0
;   supportBaseLayers,0
;   denseSupportExtruder,0
;   denseSupportLayers,0
;   denseSupportInfillPercentage,70
;   supportLayerInterval,1
;   supportHorizontalPartOffset,0.3
;   supportUpperSeparationLayers,1
;   supportLowerSeparationLayers,1
;   supportType,0
;   supportGridSpacing,4
;   maxOverhangAngle,45
;   supportAngles,0
;   temperatureName,Extruder 1 Temperature,Hotbed
;   temperatureNumber,0,0
;   temperatureSetpointCount,1,1
;   temperatureSetpointLayers,1,1
;   temperatureSetpointTemperatures,200,60
;   temperatureStabilizeAtStartup,1,1
;   temperatureHeatedBed,0,1
;   temperatureRelayBetweenLayers,0,0
;   temperatureRelayBetweenLoops,0,0
;   fanLayers,1,2
;   fanSpeeds,0,100
;   blipFanToFullPower,0
;   adjustSpeedForCooling,1
;   minSpeedLayerTime,15
;   minCoolingSpeedSlowdown,20
;   increaseFanForCooling,0
;   minFanLayerTime,45
;   maxCoolingFanSpeed,100
;   increaseFanForBridging,0
;   bridgingFanSpeed,100
;   use5D,1
;   relativeEdistances,0
;   allowEaxisZeroing,1
;   independentExtruderAxes,0
;   includeM10123,0
;   stickySupport,1
;   applyToolheadOffsets,0
;   gcodeXoffset,0
;   gcodeYoffset,0
;   gcodeZoffset,0
;   overrideMachineDefinition,1
;   machineTypeOverride,0
;   strokeXoverride,220
;   strokeYoverride,220
;   strokeZoverride,240
;   originOffsetXoverride,-6
;   originOffsetYoverride,3
;   originOffsetZoverride,0
;   homeXdirOverride,-1
;   homeYdirOverride,-1
;   homeZdirOverride,-1
;   flipXoverride,1
;   flipYoverride,-1
;   flipZoverride,1
;   toolheadOffsets,0,0|0,0|0,0|0,0|0,0|0,0
;   overrideFirmwareConfiguration,1
;   firmwareTypeOverride,RepRap (Marlin/Repetier/Sprinter)
;   GPXconfigOverride,r2
;   baudRateOverride,115200
;   overridePrinterModels,0
;   printerModelsOverride
;   startingGcode,G28 ; home all axes
;   layerChangeGcode,
;   retractionGcode,
;   toolChangeGcode,
;   endingGcode,M104 S0 ; turn off extruder,M140 S0 ; turn off bed,G1 E-1 F300	; retract the filament a bit,G28 X0 Y0; home,M84 ; disable motors,M107 ; shut off fan
;   exportFileFormat,gcode
;   celebration,0
;   celebrationSong,Star Wars
;   postProcessing,
;   defaultSpeed,3600
;   outlineUnderspeed,0.5
;   solidInfillUnderspeed,0.8
;   supportUnderspeed,0.8
;   rapidXYspeed,4800
;   rapidZspeed,1002
;   minBridgingArea,50
;   bridgingExtraInflation,0
;   bridgingExtrusionMultiplier,1
;   bridgingSpeedMultiplier,1
;   useFixedBridgingAngle,0
;   fixedBridgingAngle,0
;   applyBridgingToPerimeters,0
;   filamentDiameters,1.7|1.7|1.7|1.7|1.7|1.7
;   filamentPricesPerKg,125.42|20|20|20|20|20
;   filamentDensities,1.25|1.25|1.25|1.25|1.25|1.25
;   useMinPrintHeight,0
;   minPrintHeight,0
;   useMaxPrintHeight,0
;   maxPrintHeight,0
;   useDiaphragm,0
;   diaphragmLayerInterval,20
;   robustSlicing,1
;   mergeAllIntoSolid,0
;   onlyRetractWhenCrossingOutline,1
;   retractBetweenLayers,1
;   useRetractionMinTravel,0
;   retractionMinTravel,3
;   retractWhileWiping,0
;   onlyWipeOutlines,1
;   avoidCrossingOutline,0
;   maxMovementDetourFactor,3
;   toolChangeRetractionDistance,12
;   toolChangeExtraRestartDistance,-0.5
;   toolChangeRetractionSpeed,600
;   externalThinWallType,0
;   internalThinWallType,0
;   thinWallAllowedOverlapPercentage,10
;   singleExtrusionMinLength,1
;   singleExtrusionMinPrintingWidthPercentage,50
;   singleExtrusionMaxPrintingWidthPercentage,200
;   singleExtrusionEndpointExtension,0.2
;   horizontalSizeCompensation,0
G90
M82
M106 S0
M140 S60
M190 S60
M104 S200 T0
M109 S200 T0
G28 ; home all axes
G92 E0
G1 E-2.0000 F3600
G1 Z0.180 F1002
; process Process1
; layer 1, Z = 0.180
T0
; tool H0.200 W0.400
; skirt
G1 X91.576 Y94.643 F4800
G1 E0.0000 F1080
G92 E0
G1 X91.583 Y94.637 E0.0003 F1800
G1 X91.689 Y94.547 E0.0052
G1 X91.697 Y94.541 E0.0056
G1 X92.377 Y94.002 E0.0362
G1 X92.384 Y93.996 E0.0365
G1 X92.491 Y93.917 E0.0412
G1 X92.499 Y93.912 E0.0415
G1 X93.210 Y93.416 E0.0721
G1 X93.218 Y93.411 E0.0724
G1 X93.335 Y93.336 E0.0773
G1 X93.343 Y93.330 E0.0776
G1 X94.084 Y92.882 E0.1082
G1 X94.092 Y92.878 E0.1085
G1 X94.205 Y92.814 E0.1131
G1 X94.213 Y92.809 E0.1134
G1 X94.981 Y92.407 E0.1439
G1 X94.989 Y92.403 E0.1443
G1 X95.114 Y92.342 E0.1491
G1 X95.122 Y92.338 E0.1495
G1 X95.914 Y91.986 E0.1800
G1 X95.923 Y91.982 E0.1804
G1 X96.047 Y91.932 E0.1851
G1 X96.055 Y91.928 E0.1854
G1 X96.868 Y91.626 E0.2159
G1 X96.876 Y91.622 E0.2163
G1 X97.006 Y91.579 E0.2211
G1 X97.015 Y91.576 E0.2214
G1 X97.845 Y91.325 E0.2520
G1 X97.854 Y91.323 E0.2523
G1 X97.985 Y91.288 E0.2571
G1 X97.994 Y91.285 E0.2574
G1 X98.837 Y91.087 E0.2880
G1 X98.846 Y91.085 E0.2883
G1 X98.976 Y91.059 E0.2929
G1 X98.985 Y91.058 E0.2933
G1 X99.839 Y90.912 E0.3238
G1 X99.848 Y90.910 E0.3241
G1 X99.985 Y90.891 E0.3290
G1 X99.995 Y90.890 E0.3293
G1 X100.860 Y90.799 E0.3600
G1 X100.870 Y90.798 E0.3603
G1 X101.006 Y90.788 E0.3652
G1 X101.016 Y90.788 E0.3655
G1 X101.881 Y90.752 E0.3960
G1 X101.890 Y90.752 E0.3963
G1 X102.020 Y90.751 E0.4009
G1 X102.029 Y90.751 E0.4013
G1 X102.893 Y90.767 E0.4317
G1 X102.903 Y90.768 E0.4321
G1 X103.040 Y90.775 E0.4369
G1 X103.049 Y90.775 E0.4372
G1 X103.916 Y90.848 E0.4679
G1 X103.926 Y90.849 E0.4682
G1 X104.063 Y90.865 E0.4731
G1 X104.073 Y90.866 E0.4734
G1 X104.930 Y90.993 E0.5040
G1 X104.939 Y90.995 E0.5043
G1 X105.069 Y91.018 E0.5089
G1 X105.078 Y91.020 E0.5093
G1 X105.925 Y91.199 E0.5398
G1 X105.934 Y91.201 E0.5401
G1 X106.064 Y91.233 E0.5448
G1 X106.073 Y91.235 E0.5452
G1 X106.902 Y91.466 E0.5755
G1 X106.911 Y91.468 E0.5758
G1 X107.042 Y91.509 E0.5807
G1 X107.051 Y91.512 E0.5810
G1 X107.877 Y91.800 E0.6118
G1 X107.885 Y91.803 E0.6121
G1 X108.009 Y91.850 E0.6168
G1 X108.018 Y91.854 E0.6171
G1 X108.810 Y92.186 E0.6474
G1 X108.819 Y92.190 E0.6477
G1 X108.944 Y92.247 E0.6526
G1 X108.953 Y92.251 E0.6529
G1 X109.730 Y92.637 E0.6835
G1 X109.738 Y92.641 E0.6838
G1 X109.854 Y92.703 E0.6885
G1 X109.862 Y92.707 E0.6888
G1 X110.620 Y93.143 E0.7196
G1 X110.628 Y93.148 E0.7199
G1 X110.746 Y93.221 E0.7248
G1 X110.754 Y93.226 E0.7252
G1 X111.476 Y93.706 E0.7557
G1 X111.483 Y93.711 E0.7560
G1 X111.591 Y93.787 E0.7607
G1 X111.598 Y93.792 E0.7610
G1 X112.285 Y94.312 E0.7913
G1 X112.292 Y94.318 E0.7917
G1 X112.401 Y94.406 E0.7966
G1 X112.408 Y94.412 E0.7970
G1 X113.071 Y94.985 E0.8278
G1 X113.078 Y94.991 E0.8281
G1 X113.176 Y95.081 E0.8328
G1 X113.183 Y95.087 E0.8332
G1 X113.800 Y95.692 E0.8636
G1 X113.807 Y95.698 E0.8639
G1 X113.898 Y95.793 E0.8686
G1 X113.904 Y95.800 E0.8689
G1 X114.482 Y96.439 E0.8993
G1 X114.488 Y96.446 E0.8996
G1 X114.578 Y96.553 E0.9045
G1 X114.584 Y96.560 E0.9049
G1 X115.128 Y97.247 E0.9357
G1 X115.134 Y97.254 E0.9361
G1 X115.213 Y97.361 E0.9407
G1 X115.219 Y97.368 E0.9411
G1 X115.714 Y98.080 E0.9716
G1 X115.720 Y98.088 E0.9720
G1 X115.795 Y98.205 E0.9769
G1 X115.801 Y98.213 E0.9772
G1 X115.996 Y98.537 E0.9906
G1 X116.002 Y98.528 E0.9910
G1 X116.007 Y98.519 E0.9913
G1 X116.079 Y98.403 E0.9962
G1 X116.084 Y98.395 E0.9965
G1 X116.564 Y97.671 E1.0271
G1 X116.569 Y97.663 E1.0274
G1 X116.646 Y97.554 E1.0321
G1 X116.651 Y97.547 E1.0325
G1 X117.180 Y96.848 E1.0633
G1 X117.185 Y96.840 E1.0637
G1 X117.273 Y96.732 E1.0686
G1 X117.280 Y96.724 E1.0689
G1 X117.842 Y96.072 E1.0993
G1 X117.848 Y96.065 E1.0996
G1 X117.937 Y95.968 E1.1043
G1 X117.944 Y95.962 E1.1046
G1 X118.547 Y95.343 E1.1350
G1 X118.554 Y95.337 E1.1354
G1 X118.650 Y95.244 E1.1401
G1 X118.657 Y95.238 E1.1404
G1 X119.306 Y94.650 E1.1712
G1 X119.313 Y94.644 E1.1716
G1 X119.420 Y94.554 E1.1765
G1 X119.427 Y94.548 E1.1769
G1 X120.108 Y94.008 E1.2075
G1 X120.115 Y94.002 E1.2078
G1 X120.222 Y93.923 E1.2125
G1 X120.229 Y93.917 E1.2128
G1 X120.934 Y93.426 E1.2431
G1 X120.942 Y93.421 E1.2434
G1 X121.057 Y93.346 E1.2483
G1 X121.065 Y93.341 E1.2486
G1 X121.812 Y92.888 E1.2794
G1 X121.820 Y92.883 E1.2797
G1 X121.935 Y92.819 E1.2844
G1 X121.943 Y92.814 E1.2847
G1 X122.711 Y92.411 E1.3152
G1 X122.719 Y92.407 E1.3156
G1 X122.844 Y92.346 E1.3205
G1 X122.852 Y92.342 E1.3208
G1 X123.637 Y91.992 E1.3511
G1 X123.645 Y91.989 E1.3514
G1 X123.768 Y91.939 E1.3561
G1 X123.776 Y91.935 E1.3564
G1 X124.588 Y91.632 E1.3869
G1 X124.597 Y91.629 E1.3872
G1 X124.726 Y91.585 E1.3921
G1 X124.735 Y91.582 E1.3924
G1 X125.572 Y91.328 E1.4232
G1 X125.581 Y91.325 E1.4236
G1 X125.713 Y91.290 E1.4284
G1 X125.723 Y91.287 E1.4287
G1 X126.559 Y91.091 E1.4590
G1 X126.568 Y91.089 E1.4593
G1 X126.696 Y91.063 E1.4639
G1 X126.705 Y91.061 E1.4642
G1 X127.558 Y90.914 E1.4948
G1 X127.567 Y90.913 E1.4951
G1 X127.705 Y90.894 E1.5000
G1 X127.714 Y90.893 E1.5003
G1 X128.579 Y90.800 E1.5310
G1 X128.589 Y90.800 E1.5313
G1 X128.725 Y90.789 E1.5361
G1 X128.735 Y90.789 E1.5365
G1 X129.598 Y90.752 E1.5669
G1 X129.607 Y90.752 E1.5673
G1 X129.738 Y90.750 E1.5719
G1 X129.747 Y90.750 E1.5722
G1 X130.612 Y90.766 E1.6027
G1 X130.622 Y90.767 E1.6030
G1 X130.759 Y90.773 E1.6079
G1 X130.768 Y90.774 E1.6082
G1 X131.636 Y90.845 E1.6389
G1 X131.645 Y90.846 E1.6392
G1 X131.782 Y90.862 E1.6441
G1 X131.792 Y90.863 E1.6444
G1 X132.649 Y90.989 E1.6749
G1 X132.658 Y90.991 E1.6753
G1 X132.788 Y91.014 E1.6799
G1 X132.797 Y91.016 E1.6802
G1 X133.645 Y91.194 E1.7108
G1 X133.654 Y91.196 E1.7111
G1 X133.785 Y91.228 E1.7159
G1 X133.795 Y91.231 E1.7162
G1 X134.630 Y91.462 E1.7468
G1 X134.640 Y91.465 E1.7471
G1 X134.770 Y91.506 E1.7519
G1 X134.779 Y91.509 E1.7523
G1 X135.605 Y91.795 E1.7831
G1 X135.614 Y91.799 E1.7834
G1 X135.740 Y91.847 E1.7882
G1 X135.749 Y91.850 E1.7885
G1 X136.542 Y92.182 E1.8188
G1 X136.550 Y92.186 E1.8191
G1 X136.675 Y92.243 E1.8240
G1 X136.683 Y92.247 E1.8243
G1 X137.466 Y92.635 E1.8551
G1 X137.475 Y92.639 E1.8554
G1 X137.591 Y92.701 E1.8601
G1 X137.599 Y92.706 E1.8604
G1 X138.350 Y93.137 E1.8909
G1 X138.359 Y93.142 E1.8913
G1 X138.477 Y93.215 E1.8962
G1 X138.485 Y93.220 E1.8965
G1 X139.201 Y93.695 E1.9268
G1 X139.208 Y93.701 E1.9271
G1 X139.316 Y93.777 E1.9317
G1 X139.323 Y93.782 E1.9321
G1 X140.015 Y94.305 E1.9626
G1 X140.023 Y94.311 E1.9630
G1 X140.130 Y94.398 E1.9679
G1 X140.138 Y94.404 E1.9682
G1 X140.795 Y94.971 E1.9988
G1 X140.802 Y94.977 E1.9991
G1 X140.900 Y95.067 E2.0038
G1 X140.907 Y95.073 E2.0041
G1 X141.526 Y95.677 E2.0346
G1 X141.532 Y95.684 E2.0349
G1 X141.625 Y95.780 E2.0396
G1 X141.631 Y95.787 E2.0400
G1 X142.214 Y96.430 E2.0706
G1 X142.220 Y96.437 E2.0709
G1 X142.309 Y96.543 E2.0758
G1 X142.315 Y96.550 E2.0761
G1 X142.855 Y97.230 E2.1067
G1 X142.861 Y97.238 E2.1070
G1 X142.941 Y97.344 E2.1117
G1 X142.946 Y97.352 E2.1120
G1 X143.442 Y98.063 E2.1426
G1 X143.448 Y98.071 E2.1429
G1 X143.523 Y98.187 E2.1478
G1 X143.528 Y98.195 E2.1482
G1 X143.981 Y98.943 E2.1790
G1 X143.986 Y98.950 E2.1793
G1 X144.051 Y99.065 E2.1839
G1 X144.055 Y99.073 E2.1843
G1 X144.455 Y99.834 E2.2146
G1 X144.459 Y99.842 E2.2149
G1 X144.519 Y99.965 E2.2197
G1 X144.523 Y99.974 E2.2200
G1 X144.876 Y100.765 E2.2506
G1 X144.880 Y100.773 E2.2509
G1 X144.930 Y100.897 E2.2556
G1 X144.934 Y100.906 E2.2559
G1 X145.238 Y101.718 E2.2865
G1 X145.241 Y101.727 E2.2868
G1 X145.284 Y101.856 E2.2916
G1 X145.287 Y101.865 E2.2920
G1 X145.539 Y102.695 E2.3225
G1 X145.542 Y102.704 E2.3229
G1 X145.577 Y102.835 E2.3276
G1 X145.579 Y102.844 E2.3280
G1 X145.778 Y103.687 E2.3585
G1 X145.780 Y103.696 E2.3588
G1 X145.806 Y103.825 E2.3635
G1 X145.808 Y103.834 E2.3638
G1 X145.955 Y104.688 E2.3943
G1 X145.957 Y104.698 E2.3947
G1 X145.976 Y104.835 E2.3996
G1 X145.977 Y104.844 E2.3999
G1 X146.069 Y105.709 E2.4306
G1 X146.070 Y105.719 E2.4309
G1 X146.080 Y105.855 E2.4357
G1 X146.080 Y105.865 E2.4361
G1 X146.117 Y106.730 E2.4666
G1 X146.117 Y106.739 E2.4669
G1 X146.119 Y106.869 E2.4715
G1 X146.119 Y106.878 E2.4718
G1 X146.103 Y107.742 E2.5023
G1 X146.103 Y107.752 E2.5026
G1 X146.096 Y107.889 E2.5074
G1 X146.095 Y107.898 E2.5078
G1 X146.024 Y108.766 E2.5384
G1 X146.023 Y108.775 E2.5388
G1 X146.007 Y108.913 E2.5437
G1 X146.006 Y108.922 E2.5440
G1 X145.880 Y109.779 E2.5745
G1 X145.879 Y109.788 E2.5749
G1 X145.855 Y109.918 E2.5795
G1 X145.854 Y109.927 E2.5798
G1 X145.675 Y110.775 E2.6104
G1 X145.673 Y110.784 E2.6107
G1 X145.641 Y110.916 E2.6155
G1 X145.639 Y110.925 E2.6158
G1 X145.405 Y111.768 E2.6466
G1 X145.402 Y111.778 E2.6470
G1 X145.361 Y111.909 E2.6518
G1 X145.358 Y111.918 E2.6522
G1 X145.073 Y112.738 E2.6828
G1 X145.070 Y112.746 E2.6831
G1 X145.022 Y112.871 E2.6878
G1 X145.019 Y112.880 E2.6881
G1 X144.687 Y113.672 E2.7184
G1 X144.683 Y113.681 E2.7187
G1 X144.627 Y113.805 E2.7235
G1 X144.623 Y113.814 E2.7239
G1 X144.238 Y114.590 E2.7544
G1 X144.234 Y114.598 E2.7547
G1 X144.172 Y114.712 E2.7593
G1 X144.168 Y114.720 E2.7596
G1 X143.733 Y115.479 E2.7904
G1 X143.728 Y115.487 E2.7908
G1 X143.655 Y115.606 E2.7957
G1 X143.649 Y115.615 E2.7961
G1 X143.174 Y116.331 E2.8264
G1 X143.169 Y116.339 E2.8267
G1 X143.093 Y116.446 E2.8313
G1 X143.087 Y116.453 E2.8317
G1 X142.560 Y117.152 E2.8625
G1 X142.554 Y117.159 E2.8628
G1 X142.466 Y117.268 E2.8678
G1 X142.460 Y117.276 E2.8681
G1 X141.892 Y117.933 E2.8987
G1 X141.886 Y117.940 E2.8991
G1 X141.796 Y118.038 E2.9038
G1 X141.789 Y118.045 E2.9041
G1 X141.185 Y118.663 E2.9346
G1 X141.178 Y118.670 E2.9349
G1 X141.082 Y118.762 E2.9396
G1 X141.076 Y118.769 E2.9399
G1 X140.432 Y119.351 E2.9705
G1 X140.424 Y119.357 E2.9708
G1 X140.319 Y119.446 E2.9757
G1 X140.311 Y119.452 E2.9761
G1 X139.631 Y119.992 E3.0067
G1 X139.624 Y119.998 E3.0070
G1 X139.517 Y120.077 E3.0117
G1 X139.510 Y120.082 E3.0120
G1 X138.805 Y120.574 E3.0423
G1 X138.797 Y120.579 E3.0426
G1 X138.682 Y120.654 E3.0474
G1 X138.674 Y120.659 E3.0478
G1 X137.927 Y121.112 E3.0786
G1 X137.919 Y121.116 E3.0789
G1 X137.804 Y121.181 E3.0835
G1 X137.796 Y121.185 E3.0839
G1 X137.028 Y121.589 E3.1144
G1 X137.020 Y121.593 E3.1148
G1 X136.896 Y121.653 E3.1196
G1 X136.887 Y121.657 E3.1200
G1 X136.102 Y122.007 E3.1502
G1 X136.094 Y122.011 E3.1506
G1 X135.971 Y122.061 E3.1552
G1 X135.963 Y122.064 E3.1556
G1 X135.144 Y122.371 E3.1864
G1 X135.135 Y122.374 E3.1867
G1 X135.005 Y122.418 E3.1916
G1 X134.995 Y122.421 E3.1919
G1 X134.165 Y122.672 E3.2225
G1 X134.156 Y122.675 E3.2228
