; G-Code generated by Simplify3D(R) Version 4.0.0
; Mar 13, 2019 at 9:52:36 PM
; Settings Summary
;   processName,Process1
;   applyToModels,Suport
;   profileName,AnetA8 (modified)
;   profileVersion,2018-12-13 19:09:54
;   baseProfile,Default
;   printMaterial,PLA
;   printQuality,Medium
;   printExtruders,
;   extruderName,Extruder 1
;   extruderToolheadNumber,0
;   extruderDiameter,0.4
;   extruderAutoWidth,0
;   extruderWidth,0.4
;   extrusionMultiplier,1
;   extruderUseRetract,1
;   extruderRetractionDistance,2
;   extruderExtraRestartDistance,0
;   extruderRetractionZLift,0
;   extruderRetractionSpeed,3600
;   extruderUseCoasting,0
;   extruderCoastingDistance,0.2
;   extruderUseWipe,0
;   extruderWipeDistance,5
;   primaryExtruder,0
;   layerHeight,0.2
;   topSolidLayers,2
;   bottomSolidLayers,2
;   perimeterOutlines,2
;   printPerimetersInsideOut,1
;   startPointOption,2
;   startPointOriginX,0
;   startPointOriginY,0
;   sequentialIslands,0
;   spiralVaseMode,0
;   firstLayerHeightPercentage,90
;   firstLayerWidthPercentage,100
;   firstLayerUnderspeed,0.5
;   useRaft,0
;   raftExtruder,0
;   raftTopLayers,3
;   raftBaseLayers,2
;   raftOffset,3
;   raftSeparationDistance,0.14
;   raftTopInfill,100
;   aboveRaftSpeedMultiplier,0.3
;   useSkirt,1
;   skirtExtruder,0
;   skirtLayers,1
;   skirtOutlines,2
;   skirtOffset,4
;   usePrimePillar,0
;   primePillarExtruder,999
;   primePillarWidth,12
;   primePillarLocation,7
;   primePillarSpeedMultiplier,1
;   useOozeShield,0
;   oozeShieldExtruder,999
;   oozeShieldOffset,2
;   oozeShieldOutlines,1
;   oozeShieldSidewallShape,1
;   oozeShieldSidewallAngle,30
;   oozeShieldSpeedMultiplier,1
;   infillExtruder,0
;   internalInfillPattern,Fast Honeycomb
;   externalInfillPattern,Rectilinear
;   infillPercentage,25
;   outlineOverlapPercentage,15
;   infillExtrusionWidthPercentage,100
;   minInfillLength,5
;   infillLayerInterval,1
;   internalInfillAngles,0
;   overlapInternalInfillAngles,0
;   externalInfillAngles,45,-45
;   generateSupport,1
;   supportExtruder,0
;   supportInfillPercentage,30
;   supportExtraInflation,0
;   supportBaseLayers,0
;   denseSupportExtruder,0
;   denseSupportLayers,0
;   denseSupportInfillPercentage,70
;   supportLayerInterval,1
;   supportHorizontalPartOffset,0.3
;   supportUpperSeparationLayers,1
;   supportLowerSeparationLayers,1
;   supportType,0
;   supportGridSpacing,4
;   maxOverhangAngle,45
;   supportAngles,0
;   temperatureName,Extruder 1 Temperature,Hotbed
;   temperatureNumber,0,0
;   temperatureSetpointCount,1,1
;   temperatureSetpointLayers,1,1
;   temperatureSetpointTemperatures,200,60
;   temperatureStabilizeAtStartup,1,1
;   temperatureHeatedBed,0,1
;   temperatureRelayBetweenLayers,0,0
;   temperatureRelayBetweenLoops,0,0
;   fanLayers,1,2
;   fanSpeeds,0,100
;   blipFanToFullPower,0
;   adjustSpeedForCooling,1
;   minSpeedLayerTime,15
;   minCoolingSpeedSlowdown,20
;   increaseFanForCooling,0
;   minFanLayerTime,45
;   maxCoolingFanSpeed,100
;   increaseFanForBridging,0
;   bridgingFanSpeed,100
;   use5D,1
;   relativeEdistances,0
;   allowEaxisZeroing,1
;   independentExtruderAxes,0
;   includeM10123,0
;   stickySupport,1
;   applyToolheadOffsets,0
;   gcodeXoffset,0
;   gcodeYoffset,0
;   gcodeZoffset,0
;   overrideMachineDefinition,1
;   machineTypeOverride,0
;   strokeXoverride,220
;   strokeYoverride,220
;   strokeZoverride,240
;   originOffsetXoverride,-6
;   originOffsetYoverride,3
;   originOffsetZoverride,0
;   homeXdirOverride,-1
;   homeYdirOverride,-1
;   homeZdirOverride,-1
;   flipXoverride,1
;   flipYoverride,-1
;   flipZoverride,1
;   toolheadOffsets,0,0|0,0|0,0|0,0|0,0|0,0
;   overrideFirmwareConfiguration,1
;   firmwareTypeOverride,RepRap (Marlin/Repetier/Sprinter)
;   GPXconfigOverride,r2
;   baudRateOverride,115200
;   overridePrinterModels,0
;   printerModelsOverride
;   startingGcode,G28 ; home all axes
;   layerChangeGcode,
;   retractionGcode,
;   toolChangeGcode,
;   endingGcode,M104 S0 ; turn off extruder,M140 S0 ; turn off bed,G1 E-1 F300	; retract the filament a bit,G28 X0 Y0; home,M84 ; disable motors,M107 ; shut off fan
;   exportFileFormat,gcode
;   celebration,0
;   celebrationSong,Star Wars
;   postProcessing,
;   defaultSpeed,3600
;   outlineUnderspeed,0.5
;   solidInfillUnderspeed,0.8
;   supportUnderspeed,0.8
;   rapidXYspeed,4800
;   rapidZspeed,1002
;   minBridgingArea,50
;   bridgingExtraInflation,0
;   bridgingExtrusionMultiplier,1
;   bridgingSpeedMultiplier,1
;   useFixedBridgingAngle,0
;   fixedBridgingAngle,0
;   applyBridgingToPerimeters,0
;   filamentDiameters,1.7|1.7|1.7|1.7|1.7|1.7
;   filamentPricesPerKg,125.42|20|20|20|20|20
;   filamentDensities,1.25|1.25|1.25|1.25|1.25|1.25
;   useMinPrintHeight,0
;   minPrintHeight,0
;   useMaxPrintHeight,0
;   maxPrintHeight,0
;   useDiaphragm,0
;   diaphragmLayerInterval,20
;   robustSlicing,1
;   mergeAllIntoSolid,0
;   onlyRetractWhenCrossingOutline,1
;   retractBetweenLayers,1
;   useRetractionMinTravel,0
;   retractionMinTravel,3
;   retractWhileWiping,0
;   onlyWipeOutlines,1
;   avoidCrossingOutline,0
;   maxMovementDetourFactor,3
;   toolChangeRetractionDistance,12
;   toolChangeExtraRestartDistance,-0.5
;   toolChangeRetractionSpeed,600
;   externalThinWallType,0
;   internalThinWallType,1
;   thinWallAllowedOverlapPercentage,10
;   singleExtrusionMinLength,1
;   singleExtrusionMinPrintingWidthPercentage,50
;   singleExtrusionMaxPrintingWidthPercentage,200
;   singleExtrusionEndpointExtension,0.2
;   horizontalSizeCompensation,0
G90
M82
M106 S0
M140 S60
M190 S60
M104 S200 T0
M109 S200 T0
G28 ; home all axes
G92 E0
G1 E-2.0000 F3600
G1 Z0.180 F1002
; process Process1
; layer 1, Z = 0.180
T0
; tool H0.200 W0.400
; skirt
G1 X79.612 Y89.064 F4800
G1 E0.0000 F1080
G92 E0
G1 X80.563 Y88.229 E0.0446 F1800
G1 X80.572 Y88.221 E0.0450
G1 X80.705 Y88.114 E0.0511
G1 X80.715 Y88.106 E0.0515
G1 X82.163 Y87.026 E0.1152
G1 X82.173 Y87.019 E0.1156
G1 X82.315 Y86.922 E0.1217
G1 X82.325 Y86.915 E0.1221
G1 X83.392 Y86.246 E0.1665
G1 X83.402 Y86.240 E0.1669
G1 X83.553 Y86.153 E0.1730
G1 X83.564 Y86.147 E0.1735
G1 X85.173 Y85.311 E0.2374
G1 X85.186 Y85.305 E0.2379
G1 X85.378 Y85.217 E0.2453
G1 X85.391 Y85.211 E0.2458
G1 X87.070 Y84.538 E0.3096
G1 X87.081 Y84.534 E0.3100
G1 X87.248 Y84.475 E0.3162
G1 X87.260 Y84.471 E0.3167
G1 X88.438 Y84.108 E0.3601
G1 X88.447 Y84.105 E0.3605
G1 X88.585 Y84.067 E0.3655
G1 X88.594 Y84.065 E0.3658
G1 X89.775 Y83.785 E0.4086
G1 X89.785 Y83.783 E0.4090
G1 X89.925 Y83.754 E0.4140
G1 X89.935 Y83.753 E0.4143
G1 X91.130 Y83.552 E0.4571
G1 X91.140 Y83.550 E0.4574
G1 X91.282 Y83.531 E0.4625
G1 X91.292 Y83.530 E0.4628
G1 X92.497 Y83.409 E0.5055
G1 X92.507 Y83.408 E0.5059
G1 X92.650 Y83.399 E0.5109
G1 X92.660 Y83.398 E0.5113
G1 X93.835 Y83.359 E0.5527
G1 X93.840 Y83.359 E0.5529
G1 X93.912 Y83.358 E0.5554
G1 X93.917 Y83.358 E0.5556
G1 X137.414 Y83.358 E2.0887
G1 X137.634 Y83.449 E2.0971
G1 X140.146 Y85.961 E2.2223
G1 X140.237 Y86.182 E2.2307
G1 X140.237 Y121.522 E3.4763
G1 X140.352 Y121.522 E3.4803
G1 X140.573 Y121.614 E3.4887
G1 X141.144 Y122.185 E3.5172
G1 X144.211 Y122.185 E3.6253
G1 X144.409 Y122.267 E3.6329
G1 X148.068 Y122.267 E3.7618
G1 X148.229 Y122.334 E3.7680
G1 X149.364 Y122.334 E3.8080
G1 X149.384 Y122.314 E3.8090
G1 X149.604 Y122.222 E3.8174
G1 X157.637 Y122.222 E4.1005
G1 X157.857 Y122.314 E4.1089
G1 X160.369 Y124.826 E4.2341
G1 X160.461 Y125.046 E4.2425
G1 X160.461 Y133.079 E4.5256
G1 X160.369 Y133.299 E4.5341
G1 X157.857 Y135.811 E4.6593
G1 X157.637 Y135.902 E4.6677
G1 X156.049 Y135.902 E4.7236
G1 X155.952 Y136.000 E4.7285
G1 X155.731 Y136.091 E4.7369
G1 X147.699 Y136.091 E5.0200
G1 X147.513 Y136.014 E5.0271
G1 X143.928 Y136.014 E5.1535
G1 X143.766 Y135.947 E5.1596
G1 X140.036 Y135.947 E5.2911
G1 X139.838 Y135.865 E5.2986
G1 X136.179 Y135.865 E5.4276
G1 X135.958 Y135.774 E5.4360
G1 X135.386 Y135.202 E5.4645
G1 X132.320 Y135.202 E5.5726
G1 X132.099 Y135.111 E5.5810
G1 X129.587 Y132.599 E5.7062
G1 X129.496 Y132.379 E5.7146
G1 X129.496 Y128.631 E5.8467
G1 X93.328 Y128.624 E7.1215
G1 X93.316 Y128.624 E7.1219
G1 X93.137 Y128.616 E7.1282
G1 X93.125 Y128.615 E7.1286
G1 X91.350 Y128.467 E7.1914
G1 X91.338 Y128.466 E7.1918
G1 X91.160 Y128.444 E7.1981
G1 X91.148 Y128.442 E7.1986
G1 X89.934 Y128.238 E7.2420
G1 X89.925 Y128.236 E7.2423
G1 X89.785 Y128.208 E7.2473
G1 X89.775 Y128.206 E7.2477
G1 X88.594 Y127.925 E7.2905
G1 X88.585 Y127.923 E7.2908
G1 X88.447 Y127.886 E7.2958
G1 X88.438 Y127.883 E7.2962
G1 X87.277 Y127.525 E7.3390
G1 X87.267 Y127.522 E7.3394
G1 X87.133 Y127.476 E7.3443
G1 X87.124 Y127.472 E7.3447
G1 X85.987 Y127.038 E7.3876
G1 X85.978 Y127.034 E7.3879
G1 X85.848 Y126.980 E7.3929
G1 X85.839 Y126.976 E7.3932
G1 X84.731 Y126.467 E7.4362
G1 X84.722 Y126.463 E7.4366
G1 X84.597 Y126.400 E7.4415
G1 X84.588 Y126.396 E7.4418
G1 X83.499 Y125.807 E7.4855
G1 X83.488 Y125.801 E7.4859
G1 X83.339 Y125.712 E7.4921
G1 X83.328 Y125.706 E7.4925
G1 X81.803 Y124.714 E7.5566
G1 X81.791 Y124.706 E7.5571
G1 X81.623 Y124.585 E7.5644
G1 X81.612 Y124.576 E7.5649
G1 X80.197 Y123.449 E7.6287
G1 X80.189 Y123.443 E7.6290
G1 X80.085 Y123.354 E7.6338
G1 X80.078 Y123.348 E7.6342
G1 X79.584 Y122.900 E7.6577
G1 X79.579 Y122.895 E7.6579
G1 X79.505 Y122.825 E7.6615
G1 X79.500 Y122.820 E7.6618
G1 X78.637 Y121.961 E7.7047
G1 X78.631 Y121.954 E7.7050
G1 X78.538 Y121.856 E7.7098
G1 X78.532 Y121.849 E7.7101
G1 X77.712 Y120.922 E7.7537
G1 X77.706 Y120.915 E7.7540
G1 X77.620 Y120.812 E7.7588
G1 X77.614 Y120.805 E7.7591
G1 X76.852 Y119.827 E7.8028
G1 X76.846 Y119.819 E7.8031
G1 X76.767 Y119.712 E7.8078
G1 X76.762 Y119.704 E7.8081
G1 X76.050 Y118.665 E7.8526
G1 X76.044 Y118.655 E7.8530
G1 X75.956 Y118.516 E7.8588
G1 X75.950 Y118.506 E7.8592
G1 X75.023 Y116.901 E7.9245
G1 X75.016 Y116.889 E7.9250
G1 X74.926 Y116.714 E7.9319
G1 X74.920 Y116.702 E7.9324
G1 X74.141 Y115.013 E7.9979
G1 X74.136 Y115.003 E7.9983
G1 X74.074 Y114.853 E8.0041
G1 X74.069 Y114.843 E8.0045
G1 X73.625 Y113.653 E8.0492
G1 X73.622 Y113.645 E8.0495
G1 X73.581 Y113.522 E8.0541
G1 X73.578 Y113.514 E8.0544
G1 X73.210 Y112.313 E8.0987
G1 X73.208 Y112.304 E8.0990
G1 X73.174 Y112.181 E8.1035
G1 X73.172 Y112.172 E8.1038
G1 X72.876 Y110.950 E8.1481
G1 X72.874 Y110.941 E8.1485
G1 X72.848 Y110.816 E8.1530
G1 X72.846 Y110.807 E8.1533
G1 X72.623 Y109.568 E8.1976
G1 X72.622 Y109.559 E8.1980
G1 X72.603 Y109.433 E8.2025
G1 X72.602 Y109.424 E8.2028
G1 X72.451 Y108.157 E8.2477
G1 X72.450 Y108.146 E8.2481
G1 X72.437 Y107.988 E8.2537
G1 X72.436 Y107.977 E8.2541
G1 X72.353 Y106.104 E8.3202
G1 X72.353 Y106.091 E8.3207
G1 X72.353 Y105.900 E8.3274
G1 X72.353 Y105.886 E8.3279
G1 X72.436 Y104.014 E8.3939
G1 X72.437 Y104.003 E8.3943
G1 X72.450 Y103.844 E8.3999
G1 X72.451 Y103.833 E8.4003
G1 X72.604 Y102.550 E8.4459
G1 X72.605 Y102.539 E8.4462
G1 X72.630 Y102.382 E8.4519
G1 X72.632 Y102.371 E8.4523
G1 X72.990 Y100.534 E8.5182
G1 X72.993 Y100.521 E8.5187
G1 X73.038 Y100.334 E8.5255
G1 X73.042 Y100.321 E8.5259
G1 X73.562 Y98.527 E8.5918
G1 X73.565 Y98.516 E8.5922
G1 X73.616 Y98.363 E8.5979
G1 X73.620 Y98.353 E8.5983
G1 X74.069 Y97.148 E8.6436
G1 X74.074 Y97.137 E8.6440
G1 X74.136 Y96.987 E8.6497
G1 X74.141 Y96.977 E8.6501
G1 X74.920 Y95.289 E8.7156
G1 X74.926 Y95.277 E8.7161
G1 X75.016 Y95.103 E8.7230
G1 X75.022 Y95.091 E8.7235
G1 X75.944 Y93.494 E8.7885
G1 X75.951 Y93.482 E8.7890
G1 X76.057 Y93.316 E8.7959
G1 X76.065 Y93.305 E8.7964
G1 X77.145 Y91.775 E8.8624
G1 X77.152 Y91.766 E8.8628
G1 X77.255 Y91.632 E8.8687
G1 X77.262 Y91.623 E8.8692
G1 X78.076 Y90.643 E8.9140
G1 X78.084 Y90.634 E8.9145
G1 X78.196 Y90.509 E8.9204
G1 X78.204 Y90.501 E8.9208
G1 X79.472 Y89.197 E8.9849
G1 X79.480 Y89.189 E8.9853
G1 X79.603 Y89.072 E8.9913
G1 X79.612 Y89.064 E8.9917
G1 X79.876 Y89.365 F4800
G92 E0
G1 X79.879 Y89.362 E0.0001 F1800
G1 X80.824 Y88.532 E0.0445
G1 X80.827 Y88.530 E0.0446
G1 X80.954 Y88.427 E0.0504
G1 X80.957 Y88.425 E0.0505
G1 X82.399 Y87.350 E0.1139
G1 X82.402 Y87.347 E0.1140
G1 X82.538 Y87.254 E0.1198
G1 X82.541 Y87.252 E0.1200
G1 X83.601 Y86.587 E0.1641
G1 X83.604 Y86.585 E0.1642
G1 X83.748 Y86.502 E0.1701
G1 X83.752 Y86.501 E0.1702
G1 X85.353 Y85.668 E0.2338
G1 X85.358 Y85.666 E0.2340
G1 X85.540 Y85.582 E0.2411
G1 X85.545 Y85.580 E0.2412
G1 X87.215 Y84.911 E0.3046
G1 X87.219 Y84.909 E0.3048
G1 X87.378 Y84.853 E0.3107
G1 X87.382 Y84.852 E0.3109
G1 X88.552 Y84.491 E0.3541
G1 X88.556 Y84.490 E0.3542
G1 X88.687 Y84.454 E0.3590
G1 X88.690 Y84.453 E0.3591
G1 X89.864 Y84.175 E0.4016
G1 X89.867 Y84.174 E0.4017
G1 X90.001 Y84.147 E0.4065
G1 X90.004 Y84.147 E0.4067
G1 X91.193 Y83.947 E0.4492
G1 X91.196 Y83.946 E0.4493
G1 X91.332 Y83.928 E0.4541
G1 X91.335 Y83.928 E0.4542
G1 X92.534 Y83.807 E0.4967
G1 X92.537 Y83.807 E0.4968
G1 X92.674 Y83.798 E0.5016
G1 X92.677 Y83.798 E0.5017
G1 X93.847 Y83.759 E0.5430
G1 X93.849 Y83.759 E0.5430
G1 X93.917 Y83.758 E0.5454
G1 X93.919 Y83.758 E0.5455
G1 X137.334 Y83.758 E2.0757
G1 X137.407 Y83.788 E2.0785
G1 X139.807 Y86.188 E2.1981
G1 X139.837 Y86.261 E2.2009
G1 X139.837 Y121.922 E3.4578
G1 X140.273 Y121.922 E3.4731
G1 X140.346 Y121.953 E3.4759
G1 X140.979 Y122.585 E3.5075
G1 X144.131 Y122.585 E3.6186
G1 X144.205 Y122.616 E3.6214
G1 X144.256 Y122.667 E3.6240
G1 X147.989 Y122.667 E3.7555
G1 X148.062 Y122.698 E3.7583
G1 X148.098 Y122.734 E3.7601
G1 X149.529 Y122.734 E3.8105
G1 X149.611 Y122.653 E3.8146
G1 X149.684 Y122.622 E3.8174
G1 X157.557 Y122.622 E4.0949
G1 X157.631 Y122.653 E4.0977
G1 X160.030 Y125.052 E4.2173
G1 X160.061 Y125.126 E4.2201
G1 X160.061 Y132.999 E4.4976
G1 X160.030 Y133.073 E4.5004
G1 X157.631 Y135.472 E4.6200
G1 X157.557 Y135.502 E4.6228
G1 X155.884 Y135.502 E4.6818
G1 X155.725 Y135.661 E4.6897
G1 X155.652 Y135.691 E4.6925
G1 X147.779 Y135.691 E4.9700
G1 X147.705 Y135.661 E4.9728
G1 X147.659 Y135.614 E4.9751
G1 X144.007 Y135.614 E5.1038
G1 X143.934 Y135.584 E5.1066
G1 X143.897 Y135.547 E5.1084
G1 X140.115 Y135.547 E5.2417
G1 X140.042 Y135.517 E5.2445
G1 X139.990 Y135.465 E5.2471
G1 X136.258 Y135.465 E5.3786
G1 X136.185 Y135.435 E5.3814
G1 X135.552 Y134.802 E5.4130
G1 X132.399 Y134.802 E5.5241
G1 X132.326 Y134.772 E5.5269
G1 X129.926 Y132.373 E5.6465
G1 X129.896 Y132.299 E5.6493
G1 X129.896 Y128.232 E5.7926
G1 X93.333 Y128.224 E7.0813
G1 X93.328 Y128.224 E7.0815
G1 X93.158 Y128.217 E7.0875
G1 X93.154 Y128.216 E7.0876
G1 X91.388 Y128.069 E7.1501
G1 X91.383 Y128.068 E7.1503
G1 X91.214 Y128.047 E7.1563
G1 X91.210 Y128.047 E7.1564
G1 X90.004 Y127.844 E7.1995
G1 X90.001 Y127.843 E7.1996
G1 X89.867 Y127.816 E7.2044
G1 X89.864 Y127.816 E7.2046
G1 X88.690 Y127.537 E7.2471
G1 X88.686 Y127.536 E7.2472
G1 X88.556 Y127.501 E7.2520
G1 X88.552 Y127.500 E7.2521
G1 X87.398 Y127.144 E7.2947
G1 X87.394 Y127.143 E7.2948
G1 X87.267 Y127.099 E7.2996
G1 X87.264 Y127.097 E7.2997
G1 X86.133 Y126.666 E7.3424
G1 X86.130 Y126.664 E7.3425
G1 X86.006 Y126.612 E7.3472
G1 X86.003 Y126.611 E7.3473
G1 X84.901 Y126.105 E7.3901
G1 X84.898 Y126.104 E7.3902
G1 X84.779 Y126.044 E7.3949
G1 X84.776 Y126.042 E7.3950
G1 X83.692 Y125.457 E7.4384
G1 X83.689 Y125.455 E7.4385
G1 X83.546 Y125.370 E7.4444
G1 X83.543 Y125.368 E7.4445
G1 X82.025 Y124.381 E7.5083
G1 X82.021 Y124.378 E7.5085
G1 X81.861 Y124.263 E7.5155
G1 X81.857 Y124.260 E7.5156
G1 X80.449 Y123.138 E7.5791
G1 X80.446 Y123.136 E7.5792
G1 X80.347 Y123.051 E7.5838
G1 X80.344 Y123.049 E7.5839
G1 X79.854 Y122.605 E7.6073
G1 X79.852 Y122.603 E7.6073
G1 X79.782 Y122.536 E7.6108
G1 X79.780 Y122.535 E7.6108
G1 X78.922 Y121.680 E7.6536
G1 X78.920 Y121.677 E7.6537
G1 X78.831 Y121.584 E7.6582
G1 X78.829 Y121.581 E7.6583
G1 X78.013 Y120.659 E7.7017
G1 X78.011 Y120.657 E7.7018
G1 X77.930 Y120.559 E7.7063
G1 X77.928 Y120.556 E7.7064
G1 X77.169 Y119.583 E7.7499
G1 X77.167 Y119.581 E7.7500
G1 X77.092 Y119.478 E7.7545
G1 X77.090 Y119.476 E7.7546
G1 X76.382 Y118.442 E7.7988
G1 X76.380 Y118.439 E7.7989
G1 X76.297 Y118.306 E7.8044
G1 X76.295 Y118.302 E7.8046
G1 X75.372 Y116.704 E7.8696
G1 X75.370 Y116.700 E7.8698
G1 X75.283 Y116.534 E7.8764
G1 X75.281 Y116.530 E7.8765
G1 X74.505 Y114.849 E7.9418
G1 X74.504 Y114.846 E7.9419
